!! 00000] TT[WS
!!!OTL: Tui chuan haozi
!!!ARE: Asia, China,ÿShanxi Hequ
!! Ethnic Group: Han
!! WI, 61 (3)
!!!SCT: J0071
!!!YEM: Copyright 1995, estate of Helmut Schaffrath.
**kern
*ICvox
*Ivox
*M2/4
*k[]
*C:
{8a
16a
16g
8a
16ee
16dd
=1
2cc
=2
8a
16a
16g
8a
16ee
16dd
=3
2cc}
=4
{8.g
16cc
8a
8f
=5
8e
16d
16c
4g
=6
8ee
8g
16a
16g
16e
16d
=7
2c}
=8
{2ee
=9
8ee
16ee
16dd
4cc
=10
8ee
16ee
16ee
8dd
8cc
=11
8dd
8ee
16b
16a
16g
16a
=12
4cc
4cc}
=13
{16b
16a
16g
16a
4dd
=14
8dd
16ee
16dd
8cc
16dd
16cc
=15
8a
8g
8e
16d
16e
=16
4g
4g}
=17
{8ee
16ee
16dd
4cc
=18
8ee
16ee
16dd
4cc
=19
8e
4cc
16b
16a
=20
2g}
=21
{8e
8cc
8b
8a
=22
8b
16b
16a
4a
=23
8g
8d
8e
16e
16d
=24
2c}
=25
{8a
16a
16g
8a
16ee
16dd
=26
2cc
=27
8a
16a
16g
8a
16ee
16dd
=28
2cc}
=29
{8.g
16cc
8a
8f
=30
8e
16d
16c
4g
=31
8ee
8g
16a
16g
16e
16d
=32
2c}
==
!!!AGN: Haozi. Laodong, Chuangong
!!!ONB: ESAC (Essen Associative Code) Database: CHINA
!!!AMT: simple duple
!!!AIN: vox
!!!EED: Helmut Schaffrath
!!!EEV: 1.0
*-
